X: 19
M:6/8
L:1/8
K:C
e3-e2 c|e3-e2 c/2d/2|e2 e edc|d2 d dcB|c2 c cBA|B2 B GBd|
e2 e d2 d|c2 c BAG|EAA A2 ^G|A3-A2 B|c2 E EGE|G2 E EGE|

